!!!COM: Palestrina, Giovanni Perluigi da
!!!OPR: Pater noster
!!!OTL: Sanctus
**kern	**kern	**kern	**kern
*Ibass	*Itenor	*Icalto	*Icant
!Bassus	!Tenor	!Altus	!Cantus
*clefF4	*clefGv2	*clefG2	*clefG2
*k[]	*k[]	*k[]	*k[]
*D:dor	*D:dor	*D:dor	*D:dor
*M4/2	*M4/2	*M4/2	*M4/2
=1	=1	=1	=1
2r	0c	0r	0r
4F	.	.	.
4G	.	.	.
4A	.	.	.
4B	.	.	.
[2c	.	.	.
=2	=2	=2	=2
2c]	1d	1r	0r
2B	.	.	.
[1c	1e	2r	.
.	.	4c	.
.	.	4d	.
=3	=3	=3	=3
1c]	2e	4e	1r
.	.	4f	.
.	2e	2g	.
2r	[1f	[1a	[1cc
4F	.	.	.
4G	.	.	.
=4	=4	=4	=4
4A	2f]	2a]	1cc]
4B	.	.	.
1c	2e	2g	.
.	1d	2r	1dd
2B	.	2g	.
=5	=5	=5	=5
1c	2r	4g	1.ee
.	.	4f	.
.	4c	4e	.
.	4d	4d	.
1r	4e	1c	.
.	4f	.	.
.	2g	.	2ee
=6	=6	=6	=6
0F	0a	2r	1.ff
.	.	4f	.
.	.	4g	.
.	.	4a	.
.	.	4b	.
.	.	[2cc	2ee
=7	=7	=7	=7
1G	2r	2cc]	1dd
.	4g	2b	.
.	4f	.	.
[1A	4e	4cc	1cc
.	4d	4b	.
.	2c	4a	.
.	.	4g	.
=8	=8	=8	=8
2A]	4f	4a	2r
.	4e	4g	.
2A	2a	2f	4cc
.	.	.	4dd
[1c	4g	2e	4ee
.	4f	.	4ff
.	4e	4c	2gg
.	4d	4d	.
=9	=9	=9	=9
2c]	2c	4e	2ee
.	.	4f	.
2B	2d	1g	2.dd
1A	2e	.	.
.	.	.	4cc
.	2c	2f#	[2cc
=10	=10	=10	=10
1G	1d	1g	2cc]
.	.	.	2b
2r	1c	1e	[1cc
[2A	.	.	.
=11	=11	=11	=11
2A]	2r	2f#	2cc]
2G	1d	2g	2b
1A	.	2e	1a
.	2c	[2a	.
=12	=12	=12	=12
1B-	1d	2a]	2r
.	.	2g	1dd
1A	1e	1a	.
.	.	.	2cc
=13	=13	=13	=13
4D	1d	1a	1ff
4E	.	.	.
4F	.	.	.
4G	.	.	.
4A	1c	1a	1ee
4B	.	.	.
4c	.	.	.
4A	.	.	.
=14	=14	=14	=14
4B	1d	1r	1dd
4c	.	.	.
1d	.	.	.
.	1e	2r	1r
2c	.	[2a	.
=15	=15	=15	=15
2d	2f	2a]	2r
2B-	4e	2g	1dd
.	4d	.	.
1A	1e	1a	.
.	.	.	2cc
=16	=16	=16	=16
1G	2r	1b-	1dd
.	1d	.	.
1r	.	1a	1ee
.	2c	.	.
=17	=17	=17	=17
0r	2f	4d	1dd
.	.	4e	.
.	4d	4f	.
.	4e	4g	.
.	4f	4a	1cc
.	4g	4b	.
.	2a	4cc	.
.	.	4a	.
=18	=18	=18	=18
0r	2g	4b	1dd
.	.	4cc	.
.	2f	1dd	.
.	2g	.	1ee
.	2a	2cc	.
=19	=19	=19	=19
1r	1d	2b	1dd
.	.	1a	.
2r	1e	.	2.b
[2E	.	4g	.
.	.	4f	4a
=20	=20	=20	=20
2E]	1r	2g	4b
.	.	.	4cc
2D	.	2f	2dd
1E	2r	2.e	2cc
.	[2e	.	[2b
.	.	4d	.
=21	=21	=21	=21
1F	2e]	2c	4b]
.	.	.	4a
.	2d	4B	1a
.	.	4A	.
1E	1e	1B	.
.	.	.	2g
=22	=22	=22	=22
1D	1f	2r	2.a
.	.	1a	.
.	.	.	4b
1E	1e	.	2cc
.	.	2g	2b
=23	=23	=23	=23
1F	4A	1a	2r
.	4B	.	.
.	4c	.	1a
.	4d	.	.
1E	4e	2cc	.
.	4f	.	.
.	4g	2b	2g
.	4e	.	.
=24	=24	=24	=24
0r	4f	2a	1a
.	4g	.	.
.	1a	2f	.
.	.	1e	2cc
.	2g#	.	2b
=25	=25	=25	=25
2r	1a	4A	1cc
.	.	4B	.
1A	.	4c	.
.	.	4d	.
.	2r	4e	2cc
.	.	4f	.
2G	[2d	2g	2b
=26	=26	=26	=26
1A	2d]	2f	2r
.	2c	2e	1a
1B-	1d	2r	.
.	.	[2d	2g
=27	=27	=27	=27
1A	2f	2d]	1a
.	2e	2c	.
1G	2r	2d	1b-
.	[2d	2g	.
=28	=28	=28	=28
1A	2d]	2e	1a
.	2c	2.f	.
1B-	1d	.	4d
.	.	4e	4e
.	.	2d	4f
.	.	.	4g
=29	=29	=29	=29
1A	1.e	4c	4a
.	.	4d	4b
.	.	4e	4cc
.	.	4f	4a
1G	.	4g	4b
.	.	4a	4cc
.	[2d	[2b-	4dd
.	.	.	4ee
=30	=30	=30	=30
1A	2d]	4b-]	2ff
.	.	4a	.
.	2c	1a	2.ee
1B-	1d	.	.
.	.	.	4dd
.	.	2g	[2dd
=31	=31	=31	=31
0A	0e	0a	2dd]
.	.	.	4cc#
.	.	.	4b
.	.	.	1cc#
=32	=32	=32	=32
0D	0d	0f#	0dd
*	*	*	*-
!! Pleni
*Itenor	*Icalto	*Icant
!Tenor	!Altus	!Cantus
*clefGv2	*clefG2	*clefG2
*k[]	*k[]	*k[]
*D:dor	*D:dor	*D:dor
*M4/2	*M4/2	*M4/2
=33	=33	=33
1d	1r	0r
2d	1a	.
2d	.	.
=34	=34	=34
1f	2a	0r
.	2a	.
2e	1cc	.
4c	.	.
4d	.	.
=35	=35	=35
4e	1b	1r
4f	.	.
2.g	.	.
.	1a	2r
8f#	.	.
8e	.	.
2f#	.	2dd
=36	=36	=36
1g	1b	2dd
.	.	2dd
2d	1a	1ff
2f	.	.
=37	=37	=37
4c	2g	1ee
4d	.	.
4e	1cc	.
4f	.	.
1g	.	1dd
.	2b	.
=38	=38	=38
1c	4a	1ee
.	4g	.
.	1cc	.
1r	.	1dd
.	2b	.
=39	=39	=39
0r	2a	2cc
.	4g	1ff
.	4f	.
.	1g	.
.	.	2ee
=40	=40	=40
2r	2.f	4dd
.	.	4cc
2d	.	2.ff
.	4g	.
2d	2a	.
.	.	4ee
2d	[2b-	[2dd
=41	=41	=41
1f	2b-]	2dd]
.	2.a	4cc
.	.	4b
1e	.	4cc
.	4g	4b
.	[2g	4b
.	.	8a
.	.	8g
=42	=42	=42
1d	4g]	2a
.	8f#	.
.	8e	.
.	2f#	1dd
1e	2g	.
.	2g	2cc
=43	=43	=43
1d	2a	1ff
.	2b	.
1c	2.cc	[1ee
.	4b	.
=44	=44	=44
2r	2a	1ee]
2c	2g	.
2d	2f	1r
2e	2e	.
=45	=45	=45
2.f	4d	0r
.	4e	.
.	4f	.
4e	4g	.
2d	2.a	.
2c	.	.
.	8g	.
.	8f	.
=46	=46	=46
2B-	2g	2r
2A	2a	2cc
1G	2b-	2dd
.	2g	2ee
=47	=47	=47
0F	1a	2.ff
.	.	4ee
.	2r	2dd
.	2f	2cc
=48	=48	=48
2r	2g	2b-
2F	2a	2a
2G	2b-	2g
2A	2a	4f
.	.	4e
=49	=49	=49
1B-	4g	2d
.	4f	.
.	4f	1dd
.	8e	.
.	8d	.
1A	1e	.
.	.	2cc
=50	=50	=50
1r	2d	2.ff
.	2f	.
.	.	4ee
2r	2g	2dd
2c	[2a	2cc
=51	=51	=51
2d	2a]	1b
2e	2g#	.
2.f	[1a	2a
.	.	2cc
4e	.	.
=52	=52	=52
2d	0a]	2dd
2c	.	2ee
2.d	.	2.ff
4c	.	4ee
=53	=53	=53
2B-	2r	2dd
2A	2f	2cc
2G	2g	2b-
2F#	2a	2a
=54	=54	=54
0G	2.b-	2.g
.	4a	4a
.	1g	1b-
=55	=55	=55
0d	0f#	0a
*-	*-	*-
!! Hosanna
**kern	**kern	**kern	**kern
*Ibass	*Itenor	*Icalto	*Icant
!Bassus	!Tenor	!Altus	!Cantus
*clefF4	*clefGv2	*clefG2	*clefG2
*k[]	*k[]	*k[]	*k[]
*D:dor	*D:dor	*D:dor	*D:dor
*M4/2	*M4/2	*M4/2	*M4/2
=56	=56	=56	=56
0r	0r	1g	1r
.	.	2g	1dd
.	.	2d	.
=57	=57	=57	=57
0r	0r	2.f	2dd
.	.	.	2a
.	.	4g	.
.	.	2a	2cc
.	.	4g	2dd
.	.	4f	.
=58	=58	=58	=58
0r	1r	2g	1ee
.	.	2a	.
.	2r	4d	2.dd
.	.	4e	.
.	2d	4f	.
.	.	4g	4ee
=59	=59	=59	=59
0r	2d	4a	4ff
.	.	4b	4dd
.	2A	2.cc	1ee
.	2c	.	.
.	.	4b	.
.	2d	[2a	4dd
.	.	.	4cc
=60	=60	=60	=60
1r	1e	2a]	2.b
.	.	2g	.
.	.	.	4cc
1G	2.d	2.b-	2dd
.	.	.	2g
.	4c	4a	.
=61	=61	=61	=61
2G	4d	2g	2b-
.	4e	.	.
2D	2.f	4f	1a
.	.	4e	.
2F	.	1d	.
.	4e	.	.
2G	[2d	.	4g
.	.	.	4f
=62	=62	=62	=62
1A	2d]	1r	2.e
.	2c	.	.
.	.	.	4f
2.G	2.B-	2r	1g
.	.	2g	.
4F	4A	.	.
=63	=63	=63	=63
4G	1G	2g	0r
4A	.	.	.
2.B-	.	2d	.
.	1d	2f	.
4A	.	.	.
[2G	.	2g	.
=64	=64	=64	=64
2G]	2r	1a	1r
2F#	2.d	.	.
1G	.	1b-	2r
.	4c	.	.
.	4d	.	2dd
.	4e	.	.
=65	=65	=65	=65
4D	1f	1a	2dd
4E	.	.	.
4F	.	.	2a
4G	.	.	.
2A	2e	2r	2cc
2F	2A	[2a	2dd
=66	=66	=66	=66
1E	1B	2a]	0ee
.	.	2g#	.
1A	4c	2a	.
.	4d	.	.
.	4e	[2cc	.
.	4f	.	.
=67	=67	=67	=67
1r	1g	2cc]	2.dd
.	.	2b	.
.	.	.	4cc
2r	2.d	2.a	4dd
.	.	.	4ee
2d	.	.	[2ff
.	4e	4g	.
=68	=68	=68	=68
2d	4f	4a	2ff]
.	4g	4b	.
2A	2a	2.cc	1ee
2c	2g	.	.
.	.	4b	.
2d	2f	[2a	[2dd
=69	=69	=69	=69
1e	1g	2a]	2dd]
.	.	1g	2cc#
1d	1a	.	[1dd
.	.	2f#	.
=70	=70	=70	=70
0G	2r	0b	1dd]
.	2g	.	.
.	2g	.	2r
.	2d	.	2dd
=71	=71	=71	=71
2r	1f	0a	2dd
2A	.	.	2a
2A	2e	.	2cc
2F	[2d	.	2dd
=72	=72	=72	=72
2G	2d]	2r	1ee
2A	2c#	2a	.
1D	1d	2a	2.dd
.	.	2f	.
.	.	.	4cc
=73	=73	=73	=73
2E	1r	2g	2b
2F	.	2a	2a
2.G	2r	2.d	1b
.	2d	.	.
4F	.	4e	.
=74	=74	=74	=74
4D	2d	4f	2a
4E	.	4g	.
4F	2A	2.a	2ff
4G	.	.	.
2A	2c	.	2ee
.	.	4e	.
2B-	2d	2g	[2dd
=75	=75	=75	=75
0A	0e	0a	2dd]
.	.	.	4cc#
.	.	.	4b
.	.	.	1cc#
=76	=76	=76	=76
0D	0d	0a	0dd
==	==	==	==
*-	*-	*-	*-
!!!CDT: 1525/^1526/-1594/2/2
!!!OCY: Italia
!!!AGN: Mass (Paraphrase)
!!!AST: renaissance, vocal
!!!ASW: Prayer
!!!PWK: Masses, Book 10
!!!RNB: Cadence finals: A
!!!YOR: Le Opere Complete, v. 27, p. 199
!!!YOO: Rome, Italy: Fratelli Scalera
!!!END: 1992//
!!!EED: John Miller
!!!YEC: Copyright 2000, John Miller
!!!YEN: United States of America
!!!YEM: Rights to all derivative electronic formats reserved.
!!!YEM: Refer to licensing agreement for further details.
!!!YEM: This file must be accompanied by the licensing agreement.
!!!YEM: A copy of the licensing agreement may be found at http://www.music-cog.ohio-state.edu/HumdrumDatabases/Palestrina/license.txt
!!!EMD: converted to Humdrum by Bret Aarden
